X:8640
T:Kirgate Hornpipe. GS.071
T:Kirkgate Hornpipe. GS.071
T:New Castle Hornpipe,aka. GS.071
M:2/2
L:1/8
Q:160
S:George Spencer m/s, Leeds,1831
R:Hornpipe
O:England
A:Leeds
N:Kirkgate is the main street in Leeds,as elsewhere
H:1831
Z:vmp.Cherri Graebe
K:G major
gd | B2B2 BcAF | G2G2 B2 Bc | dBdB edcB | cBAG FAFD | B2B2 Bd^ce |! d2d2
d2 AG |
 FAFD EGE^C | D2D2D2 :||: AB | c2c2c2 AB | cBAG F2D2 |! d2d2d2 ef | gfed
 cBAG |
 e2e2 egfg | d2d2 dgfg | dBec BAGF | G2G2G2:||
